X:15
T:Not for Joe
T:Dilwyn
M:4/4
L:1/8
K:G
P:A
B2 BA G2 B2 | c2 cB A2 c2 | B2 BA G2 B2 | A2 F2 E2 D2 |!
B2 BA G2 B2 | c2 cB A2 c2 | Bd BG Ac AF | G2 B2 G4:|!
P:B
|:D2 GG D2 GG | F2 E2 F2 E2 | D2 GG D2 GG | F2 G2 A4|!
D2 GG D2 GG | F2 E2 F2 E2 | D2 G2 B3A | G2 F2 G4:|

